X:23
T:Zinzan's Maggot
T:Tsig?
M:6/4
L:1/4
Q:3/4=85
S:D.Wright, Extraordinary Collection, London 1713
O:6
Z:Pete Stewart, 2004 <www.hornpipemusic.co.uk>
K:G
"4/4 in book"d/c/ | BGBDBD | FDFAdF | EGEAcA | FAGFDG/A/ |
BGBDdD | FDFAdF | EGEFAF | (G3G2) :|
L:1/8
 |: e2 | dcBcdB cBABcA | GFEFGE FEFGAF |
cBcdec BABcdB | gfefge agfgaf |
dcBcdB cBABcA | GFEFGE FEFGAF |
gagfgB cBAGFA | (G6G4) :|
L:1/4
 |: g/f/ | gfgBdc/B/ | cABcec | BGBcdc/B/ | ceafdg/f/ |
gfgBdc/B/ | cABceg | fdcBDF | (G3G2) :|
 |: a | bg/a/b a/b/ a/g/f | aeg f/g/f/e/d | BdBcec | B/A/B/c/dfga |
bg/a/b a/b/a/g/f | afg f/g/f/e/d | cecBdf | (g3g2) :|

